app/dist/common/images/dhi-group.svg

<svg height="18" viewBox="0 0 18 18" width="18" xmlns="http://www.w3.org/2000/svg"><path d="m0 0h18v18h-18z" fill="#f0f3fa"/><path d="m12.31 6.5h-1.31v1.88l-2 .88v-2.76h-1.3v5.5h1.3v-1.63l2-.87v2.5h1.31zm.69 5.5h1.37v-3.89l-1.37.46zm-7.1-2.73c0 .97-.7 1.6-1.71 1.6h-.89v-3.24h.89c1 0 1.72.66 1.72 1.64zm-1.7-2.77h-2.2v5.5h2.19c1.76 0 3.02-1.2 3.02-2.75v-.02c-.01-1.53-1.26-2.73-3.02-2.73z" fill="#434656"/><path d="m16 5-3 1.17v1.16l3-1.16z" fill="#55b046"/></svg>

<!-- by TradingView --><svg xmlns="http://www.w3.org/2000/svg" width="18" height="18" viewBox="0 0 18 18"><path fill="#F0F3FA" d="M0 0h18v18H0z"/><path d="M12.31 6.5H11v1.88l-2 .88V6.5H7.7V12H9v-1.63l2-.87V12h1.31V6.5ZM13 12h1.37V8.11L13 8.57V12ZM5.9 9.27c0 .97-.7 1.6-1.71 1.6H3.3V7.63h.89c1 0 1.72.66 1.72 1.64ZM4.2 6.5H2V12h2.19c1.76 0 3.02-1.2 3.02-2.75v-.02C7.2 7.7 5.95 6.5 4.19 6.5Z" fill="#434656"/><path d="m16 5-3 1.17v1.16l3-1.16V5Z" fill="#55B046"/></svg>
